X:1
T:Title
%%score { ( 1 3 ) | ( 2 4 ) }
L:1/8
M:4/4
K:Ab
V:1 treble nm="Grand Piano"
V:3 treble 
V:2 bass 
V:4 bass 
V:1
 z4 z2[Q:1/4=100] [CE]2 | [Ec]2 [DB]2 [CA]3 [CE] | [DF][FA] [Fd]2 [Ec]2 E2 | F2 F2 [CE]2 [EA]2 | %4
[M:3/4] G2 A2 B2 |[M:1/4] d2 |[M:4/4] c2 B2 A3 [A,EG] | [A,DF]2 [A,DF]2 [A,CE]2 [CEA]2 | %8
 G2 B2 A3 [Fd] |[M:7/8] [Ec]2 [DB]2 [A,CA]3 |[M:1/4] E2 |[M:4/4] F6 z2 | E6 z2 | %13
 [A,DF]2 [A,DF]2 [A,CE]2 [CEA]2 |[M:7/8] [EAc]3 [DEB] [CEA]3 |] %15
V:2
 z4 z2 [A,,A,]2 | [A,,A,]2 [A,,A,]2 [A,,A,]3 [A,,A,] | [D,A,]2 [D,A,]2 [A,,A,]2 [C,A,]2 | %3
 [D,A,D]2 [D,A,D]2 [A,,A,]2 [C,A,]2 |[M:3/4] [E,B,E]2 [F,A,=D]2 [E,G,E]2 |[M:1/4] [G,B,E]2 | %6
[M:4/4] [A,E]2 [E,G,D]2 [F,A,C]3 C, | D,2 D,2 A,,2 A,,2 | [E,B,E]2 [E,G,D]2 [F,A,C]3 [D,A,] | %9
[M:7/8] [E,A,]2 [E,G,]2 A,,3 |[M:1/4] C2 |[M:4/4] D6 z2 | C6 z2 | D,2 D,2 E,2 E,2 | %14
[M:7/8] E,3 E, A,,3 |] %15
V:3
 x8 | x8 | x8 | x8 |[M:3/4] x6 |[M:1/4] x2 |[M:4/4] x8 | x8 | x8 |[M:7/8] x7 |[M:1/4] x2 | %11
[M:4/4] z2 A,2 A,2 F2 | z2 A,2 A,2 [A,CE]2 | x8 |[M:7/8] x7 |] %15
V:4
 x8 | x8 | x8 | x8 |[M:3/4] x6 |[M:1/4] x2 |[M:4/4] x8 | x8 | x8 |[M:7/8] x7 |[M:1/4] x2 | %11
[M:4/4] z2 D,2 D,2 D2 | z2 A,,2 A,,2 A,,2 | x8 |[M:7/8] x7 |] %15

